X:1
T:Sommars schlagern, Rättviks polska
R:polska O
C:Polska efter Pers Olle
Z:based on transcription by David Lamb
M:3/4
L:1/16
Q:1/4=95
K:D
P:A
|: "D" A3(c d3)(e f3)a|(af3) (g2e2) f4-|"G" d4 (cd)cA B3G | (GB3)"A"A8\
|  "D" A3(c d3)(e f3)a|(af3) (g2e2) f4-|"A" a2(a2 ga)ge f3d|(ec3)"D"[D8d8]:|
P:B
|: "D" A4 (fd3) A3F |"G" G4 B2AG "A"A4-|A4 (E3F) G3A|B3AG A8\
|  "D" A4 (fd3) A3F |"G" G4 B2AG "A"A4-|A3(c d3)(e f3)d|(ec3) "D"[D8d8] :||

